X:92
T:La Bastringue
M:4/4
L:1/8
R:reel
N:Learned from Howard Chu
Z:Michael Abraham Shulman
K:D
de|f2ff f2gf|e2c2 d2dd|c2d2 e2de|f2e2 d2e2|
f2ff f2gf|e2c2 d2ef|g2f2 e2d2|B2c2 d2:|
A2|:d2fd adfd|=c2ec gcec|d2fd adfa|bgec dcBA|
d2fd adfd|=c2ec gcec|d2fd adfa|bgec d4:|
